X:412
T: Lazaruslied (5-7), S. 20
N: P0682
O: Lothringen
S: MERKELBACH-PINCK, Angelika: Verklingende Weisen, Bd 5, Kassel 1962]
R: geistliches, religises Lied]
M: 2/4
L: 1/8
K: F
 | B2AG | c2GA | F2ED | C3
C | F2G2 | AccB | A2GG | F4

@@@ Tune index: 7962
